X:1
T: Lowland Rant
C:
R:Strathspey
Q: 128
K:G
M:4/4
L:1/16
|:D2|G3A G3D E3F G3g|dB3 A3G E6 F2|G3A G3D E3F G3g|dB3 A3B G6 D2|
G3A G3D E3F G3g|dB3 A3G E6 F2|G3A G3D E3F G3g|dB3 A3B G6 c'2|
b3g a3f g3e dB3|A3c BA3 E6 c'2|b3g a3f g3e dB3|A3G AB3 G6 b2|
b3g a3f g3e dB3|A3c BA3 E6 F2|G3A G3D E3F G3g|dB3 A3B G6:|
